libs/ui/packages/crypto-icons/src/svg/XUC.svg

<svg width="24" height="24" viewBox="0 0 24 24" fill="none">
<path d="M20.25 12C20.25 16.5562 16.5562 20.25 12 20.25C7.44375 20.25 3.75 16.5562 3.75 12C3.75 7.443 7.44375 3.75 12 3.75C16.5562 3.75 20.25 7.44375 20.25 12ZM17.4225 12.2595C17.4277 12.1658 17.4225 12.2595 17.4225 12.1642C17.4225 9.459 15.4237 7.056 12.831 6.65175V5.07675L11.151 5.60025V6.6525C8.55975 7.056 6.5745 9.2925 6.5745 11.9963C6.5745 14.7638 8.652 17.0437 11.3325 17.37V18.921L13.0125 18.3975V17.313C13.9394 17.1338 14.8034 16.7157 15.5191 16.1001C16.2349 15.4845 16.7775 14.6927 17.0933 13.803H15.3525C15.0272 14.4114 14.5429 14.9201 13.9511 15.2748C13.3594 15.6294 12.6824 15.8168 11.9925 15.8168C11.0275 15.8161 10.0985 15.4502 9.39216 14.7927C8.68582 14.1352 8.25446 13.2347 8.18475 12.2723L17.4233 12.2595H17.4225ZM8.4375 10.5975C8.7183 9.8835 9.20762 9.2706 9.8417 8.83864C10.4758 8.40669 11.2253 8.1757 11.9925 8.17575C12.7594 8.17641 13.5083 8.40781 14.142 8.83985C14.7756 9.27189 15.2645 9.88458 15.5452 10.5982H8.43825L8.4375 10.5975Z" fill="white"/>
<path d="M20.25 12C20.25 16.5562 16.5562 20.25 12 20.25C7.44375 20.25 3.75 16.5562 3.75 12C3.75 7.443 7.44375 3.75 12 3.75C16.5562 3.75 20.25 7.44375 20.25 12ZM17.4225 12.2595C17.4277 12.1658 17.4225 12.2595 17.4225 12.1642C17.4225 9.459 15.4237 7.056 12.831 6.65175V5.07675L11.151 5.60025V6.6525C8.55975 7.056 6.5745 9.2925 6.5745 11.9963C6.5745 14.7638 8.652 17.0437 11.3325 17.37V18.921L13.0125 18.3975V17.313C13.9394 17.1338 14.8034 16.7157 15.5191 16.1001C16.2349 15.4845 16.7775 14.6927 17.0933 13.803H15.3525C15.0272 14.4114 14.5429 14.9201 13.9511 15.2748C13.3594 15.6294 12.6824 15.8168 11.9925 15.8168C11.0275 15.8161 10.0985 15.4502 9.39216 14.7927C8.68582 14.1352 8.25446 13.2347 8.18475 12.2723L17.4233 12.2595H17.4225ZM8.4375 10.5975C8.7183 9.8835 9.20762 9.2706 9.8417 8.83864C10.4758 8.40669 11.2253 8.1757 11.9925 8.17575C12.7594 8.17641 13.5083 8.40781 14.142 8.83985C14.7756 9.27189 15.2645 9.88458 15.5452 10.5982H8.43825L8.4375 10.5975Z" fill="#25AAE3"/>
</svg>

<svg width="24" height="24" viewBox="0 0 24 24" fill="none"><path fill="#fff" d="M20.25 12a8.25 8.25 0 1 1-16.5 0 8.25 8.25 0 0 1 16.5 0m-2.828.26c.006-.094 0 0 0-.096 0-2.705-1.998-5.108-4.591-5.512V5.077l-1.68.523v1.053a5.41 5.41 0 0 0-4.576 5.343 5.416 5.416 0 0 0 4.757 5.374v1.551l1.68-.523v-1.085a5.42 5.42 0 0 0 4.081-3.51h-1.74a3.81 3.81 0 0 1-5.96.99 3.82 3.82 0 0 1-1.208-2.52l9.238-.014m-8.984-1.662a3.82 3.82 0 0 1 7.107 0z"/><path fill="#25aae3" d="M20.25 12a8.25 8.25 0 1 1-16.5 0 8.25 8.25 0 0 1 16.5 0m-2.828.26c.006-.094 0 0 0-.096 0-2.705-1.998-5.108-4.591-5.512V5.077l-1.68.523v1.053a5.41 5.41 0 0 0-4.576 5.343 5.416 5.416 0 0 0 4.757 5.374v1.551l1.68-.523v-1.085a5.42 5.42 0 0 0 4.081-3.51h-1.74a3.81 3.81 0 0 1-5.96.99 3.82 3.82 0 0 1-1.208-2.52l9.238-.014m-8.984-1.662a3.82 3.82 0 0 1 7.107 0z"/></svg>
